logo/terser.svg

<?xml version="1.0" encoding="UTF-8"?>
<svg width="512px" height="157px" viewBox="0 0 512 157" version="1.1" xmlns="http://www.w3.org/2000/svg" xmlns:xlink="http://www.w3.org/1999/xlink" preserveAspectRatio="xMidYMid">
    <g>
        <rect fill="#FF6B00" x="7.96444444" y="0" width="26.7377778" height="58.0266667"></rect>
        <path d="M7.96444444,84.7644444 L7.96444444,128.568889 C7.96444444,148.48 23.3244444,155.875556 34.7022222,155.875556 L47.7866667,155.875556 L47.7866667,128.568889 L34.7022222,128.568889 L34.7022222,84.7644444 L7.96444444,84.7644444 Z" fill="#FF6B00"></path>
        <polygon fill="#05CE7C" points="0 58.0266667 10.3621788 58.0266667 10.3621788 84.7644444 0 84.7644444"></polygon>
        <polygon fill="#05CE7C" points="33.1174392 58.0266667 47.7866667 58.0266667 47.7866667 84.7644444 33.1174392 84.7644444"></polygon>
        <rect fill="#055600" x="7.96444444" y="58.0266667" width="26.7377778" height="26.7377778"></rect>
        <path d="M133.12,111.502222 L160.426667,100.124444 C156.728889,91.3635556 153.031111,83.0577778 149.617778,78.5066667 L122.88,89.8844444 L133.12,111.502222 Z" fill="#DA1800"></path>
        <path d="M98.9866667,125.155556 L89.3155556,103.537778 L61.44,114.915556 C63.5448889,123.619556 67.1288889,131.527111 71.68,137.102222 L98.9866667,125.155556 Z" fill="#DA1800"></path>
        <path d="M122.88,89.8844444 L149.617778,78.5066667 C120.604444,37.5466667 54.6133333,61.44 61.44,114.915556 L89.3155556,103.537778 C91.9324444,86.0728889 110.364444,79.3031111 122.88,89.8844444 Z" fill="#FF6B00"></path>
        <path d="M89.3155556,103.537778 C88.9460022,107.997055 89.3553229,111.741476 90.5250351,114.946624 C92.0562978,119.142462 94.8906631,122.414136 98.9866667,125.155556 L133.12,111.502222 C131.356444,103.082667 128.625778,95.8577778 122.88,89.8844444 L89.3155556,103.537778 Z" fill="#DA3AB3"></path>
        <path d="M71.68,137.102222 C91.8186667,161.962667 127.431111,161.564444 150.186667,140.515556 L133.12,119.466667 C124.586667,129.137778 106.951111,130.844444 98.9866667,125.155556" fill="#FF6B00"></path>
        <polygon fill="#DA3AB3" points="200.817778 59.1644444 200.817778 58.0266667 174.08 58.0266667 174.08 92.16"></polygon>
        <path d="M200.817778,59.1644444 L198.706298,62.2387044 L199.404653,91.1771571 L200.817778,92.16 C203.491556,84.5368889 211.285333,82.432 216.746667,87.6088889 L236.088889,68.2666667 C225.393778,58.1404444 212.252444,55.9786667 200.817778,59.1644444 Z" fill="#00B3E3"></path>
        <path d="M200.817778,59.1644444 C186.766222,63.0897778 175.331556,75.3777778 174.08,92.16 L174.08,155.875556 L200.817778,155.875556 L200.817778,59.1644444 Z" fill="#00299F"></path>
        <path d="M315.733333,58.0266667 L273.066667,58.0266667 C234.837333,64.9102222 238.535111,119.239111 277.048889,120.035556 L293.546667,120.035556 C299.349333,120.035556 299.349333,129.137778 293.546667,129.137778 L254.862222,129.137778 L254.862222,155.875556 L293.546667,155.875556 C314.254222,153.827556 324.039111,140.686222 324.266667,125.724444 C324.494222,109.397333 312.718222,93.2977778 292.977778,93.2977778 L275.911111,93.2977778 C272.156444,91.9893333 272.156444,86.2435556 275.911111,84.7644444 L315.733333,84.7644444 L315.733333,58.0266667 Z" fill="#FF4338"></path>
        <path d="M409.031111,111.502222 L436.337778,100.124444 C432.64,91.3635556 428.942222,83.0577778 425.528889,78.5066667 L398.791111,89.8844444 L409.031111,111.502222 Z" fill="#DA1800"></path>
        <path d="M374.897778,125.155556 L365.226667,103.537778 L337.351111,114.915556 C339.456,123.619556 343.04,131.527111 347.591111,137.102222 L374.897778,125.155556 Z" fill="#DA1800"></path>
        <path d="M398.791111,89.8844444 L425.528889,78.5066667 C396.515556,37.5466667 330.524444,61.44 337.351111,114.915556 L365.226667,103.537778 C367.843556,86.0728889 386.275556,79.3031111 398.791111,89.8844444 Z" fill="#FF6B00"></path>
        <path d="M365.226667,103.537778 C364.373333,113.834667 367.672889,120.32 374.897778,125.155556 L409.031111,111.502222 C407.267556,103.082667 404.536889,95.8577778 398.791111,89.8844444 L365.226667,103.537778 Z" fill="#DA3AB3"></path>
        <path d="M347.591111,137.102222 C367.729778,161.962667 403.342222,161.564444 426.097778,140.515556 L409.031111,119.466667 C400.497778,129.137778 382.862222,130.844444 374.897778,125.155556" fill="#FF6B00"></path>
        <polygon fill="#DA3AB3" points="476.728889 59.1644444 476.728889 58.0266667 449.991111 58.0266667 449.991111 92.16"></polygon>
        <path d="M476.728889,59.1644444 L476.024353,60.500593 L476.024353,91.252704 L476.728889,92.16 C479.402667,84.5368889 487.196444,82.432 492.657778,87.6088889 L512,68.2666667 C501.304889,58.1404444 488.163556,55.9786667 476.728889,59.1644444 Z" fill="#00B3E3"></path>
        <path d="M476.728889,59.1644444 C462.677333,63.0897778 451.242667,75.3777778 449.991111,92.16 L449.991111,155.875556 L476.728889,155.875556 L476.728889,59.1644444 Z" fill="#00299F"></path>
    </g>
</svg>

<svg viewBox="0 0 512 157" xmlns="http://www.w3.org/2000/svg"><g fill="#FF6B00"><path d="M7.96 0h26.73v58.02H7.95Z"/><path d="M7.96 84.76v43.8c0 19.91 15.36 27.3 26.73 27.3h13.08v-27.31H34.68V84.74H7.94Z"/></g><g fill="#05CE7C"><path d="M0 58.02l10.36 0 0 26.73 -10.37 0Z"/><path d="M33.11 58.02l14.66 0 0 26.73 -14.67 0Z"/></g><path fill="#055600" d="M7.96 58.02h26.73v26.73H7.95Z"/><g fill="#DA1800"><path d="M133.12 111.5l27.3-11.38c-3.7-8.77-7.4-17.07-10.81-21.62l-26.74 11.37 10.24 21.61Z"/><path d="M98.98 125.15l-9.68-21.62 -27.88 11.37c2.1 8.7 5.68 16.61 10.24 22.18l27.3-11.95Z"/></g><path fill="#FF6B00" d="M122.88 89.88l26.73-11.38c-29.02-40.96-95.01-17.07-88.18 36.4l27.87-11.38c2.61-17.47 21.04-24.24 33.56-13.66Z"/><path fill="#DA3AB3" d="M89.31 103.53c-.37 4.45.03 8.2 1.2 11.4 1.53 4.19 4.36 7.46 8.46 10.2l34.13-13.66c-1.77-8.42-4.5-15.65-10.24-21.62L89.29 103.5Z"/><path fill="#FF6B00" d="M71.68 137.1c20.13 24.86 55.75 24.46 78.5 3.41l-17.07-21.05c-8.54 9.67-26.17 11.37-34.14 5.68"/><path fill="#DA3AB3" d="M200.81 59.16l0-1.14 -26.74 0 0 34.13Z"/><path fill="#00B3E3" d="M200.81 59.16l-2.12 3.07 .69 28.93 1.41.98c2.67-7.63 10.46-9.73 15.92-4.56l19.34-19.35c-10.7-10.13-23.84-12.29-35.28-9.11Z"/><path fill="#00299F" d="M200.81 59.16c-14.06 3.92-25.49 16.21-26.74 32.99v63.71h26.73V59.14Z"/><path fill="#FF4338" d="M315.73 58.02h-42.67c-38.23 6.88-34.54 61.21 3.98 62h16.49c5.8 0 5.8 9.1 0 9.1h-38.69v26.73h38.68c20.7-2.05 30.49-15.19 30.72-30.16 .22-16.33-11.55-32.43-31.29-32.43h-17.07c-3.76-1.31-3.76-7.06 0-8.54h39.82V57.98Z"/><g fill="#DA1800"><path d="M409.03 111.5l27.3-11.38c-3.7-8.77-7.4-17.07-10.81-21.62l-26.74 11.37 10.24 21.61Z"/><path d="M374.89 125.15l-9.68-21.62 -27.88 11.37c2.1 8.7 5.68 16.61 10.24 22.18l27.3-11.95Z"/></g><path fill="#FF6B00" d="M398.79 89.88l26.73-11.38c-29.02-40.96-95.01-17.07-88.18 36.4l27.87-11.38c2.61-17.47 21.04-24.24 33.56-13.66Z"/><path fill="#DA3AB3" d="M365.22 103.53c-.86 10.29 2.44 16.78 9.67 21.61l34.13-13.66c-1.77-8.42-4.5-15.65-10.24-21.62l-33.57 13.65Z"/><path fill="#FF6B00" d="M347.59 137.1c20.13 24.86 55.75 24.46 78.5 3.41l-17.07-21.05c-8.54 9.67-26.17 11.37-34.14 5.68"/><path fill="#DA3AB3" d="M476.72 59.16l0-1.14 -26.74 0 0 34.13Z"/><path fill="#00B3E3" d="M476.72 59.16l-.71 1.33v30.75l.7.9c2.67-7.63 10.46-9.73 15.92-4.56l19.34-19.35c-10.7-10.13-23.84-12.29-35.28-9.11Z"/><path fill="#00299F" d="M476.72 59.16c-14.06 3.92-25.49 16.21-26.74 32.99v63.71h26.73V59.14Z"/></svg>
